images/eth.svg

<svg width="16" height="26" viewBox="0 0 16 26" fill="none" xmlns="http://www.w3.org/2000/svg">
<g clip-path="url(#clip0)">
<path d="M0.200195 14.1603C2.94887 15.6618 5.81705 17.2336 8.03221 18.4498L15.8002 14.1603C12.9875 18.4586 10.6443 22.0368 8.03221 25.997C5.41584 22.0456 2.52632 17.6858 0.200195 14.1603ZM0.498964 12.9748L8.04074 8.83463L15.4844 12.9441L8.04501 17.0887L0.498964 12.9748ZM8.03221 7.5087L0.200195 11.7499L7.99806 0.00537109L15.8002 11.7762L8.03221 7.5087Z" fill="#FF961C"/>
<path d="M8.03219 18.4487L15.8002 14.1592C12.9875 18.4575 8.03219 25.9959 8.03219 25.9959V18.4487ZM8.04073 8.83353L15.4843 12.943L8.045 17.0876L8.04073 8.83353ZM8.03219 7.5076L7.99805 0.00427246L15.8002 11.7751L8.03219 7.5076Z" fill="#FF961C"/>
<path d="M0.499023 12.9736L8.0408 13.6102L15.4844 12.9473L8.04507 17.0919L0.499023 12.9736Z" fill="#FF961C"/>
<path d="M8.04102 13.6102L15.4846 12.9473L8.04528 17.0919L8.04102 13.6102Z" fill="#FF961C"/>
</g>
<defs>
<clipPath id="clip0">
<rect width="15.6" height="26" fill="white" transform="translate(0.200195)"/>
</clipPath>
</defs>
</svg>

<svg width="16" height="26" fill="none" xmlns="http://www.w3.org/2000/svg"><g clip-path="url(#clip0)" fill="#FF961C"><path d="M.2 14.16c2.749 1.502 5.617 3.074 7.832 4.29l7.768-4.29a3755.319 3755.319 0 01-7.768 11.837C5.416 22.046 2.526 17.686.2 14.16zM.5 12.975l7.542-4.14 7.443 4.11-7.439 4.144-7.546-4.114zm7.533-5.466L.2 11.749 7.998.006 15.8 11.776 8.032 7.51z"/><path d="M8.032 18.449l7.768-4.29c-2.813 4.298-7.768 11.837-7.768 11.837v-7.547zm.009-9.615l7.443 4.109-7.439 4.145-.004-8.254zm-.009-1.326L7.998.004 15.8 11.775 8.032 7.508z"/><path d="M.499 12.974l7.542.636 7.443-.663-7.439 4.145L.5 12.974z"/><path d="M8.041 13.61l7.444-.663-7.44 4.145-.004-3.482z"/></g><defs><clipPath id="clip0"><path fill="#fff" transform="translate(.2)" d="M0 0h15.6v26H0z"/></clipPath></defs></svg>
